rospo-icon-theme-classic-common/32x32/apps/tegaki-recognize.svg

<svg height="32" width="32" xmlns="http://www.w3.org/2000/svg"><rect height="29" opacity=".2" rx="1.45" width="29" x="2" y="2"/><rect fill="#e4e4e4" height="29" rx="1.45" width="29" x="2" y="1"/><g fill="none" stroke-linecap="round" stroke-linejoin="round" stroke-width="3"><path d="m16.499983 6.4996663v6.9996607m-6.999983-2.999661h14m-10 12h6m-3.000017 3.99997v-15.79c2.380474 3.85671 4.263622 9.890582 9.000017 10.8m-8.985876 4.97006v-15.789999c-2.380474 3.85671-4.27773 9.890581-9.014124 10.799999" opacity=".1" stroke="#000"/><g stroke="#3f3f3f"><path d="m16.499983 25.49997v-15.7899999c2.380474 3.8567099 4.263622 9.8905819 9.000017 10.7999999m-8.985876 4.97006v-15.7899994c-2.380474 3.8567104-4.27773 9.8905814-9.014124 10.7999994"/><path d="m13.5 21.5h6"/><path d="m9.5 9.5h14"/><path d="m16.499983 5.5v6.999661"/></g></g><path d="m3.4492188 1c-.8033 0-1.4492188.6459188-1.4492188 1.4492188v1c0-.8033.6459188-1.4492188 1.4492188-1.4492188h26.1015622c.8033 0 1.449219.6459188 1.449219 1.4492188v-1c0-.8033-.645919-1.4492188-1.449219-1.4492188z" fill="#fff" opacity=".2"/></svg>

<svg xmlns="http://www.w3.org/2000/svg" width="32" height="32" version="1">
 <rect width="29" height="29" x="2" y="2" rx="1.45" ry="1.45" style="opacity:0.2"/>
 <rect style="fill:#cccccc" width="29" height="29" x="2" y="1" rx="1.45" ry="1.45"/>
 <path style="opacity:0.1;fill:none;stroke:#000000;stroke-width:3;stroke-linecap:round;stroke-linejoin:round" d="m 16.499983,6.4996663 0,6.9996607 M 9.5,10.499666 l 14,0 m -10,12 6,0 m -3.000017,3.99997 0,-15.79 c 2.380474,3.85671 4.263622,9.890582 9.000017,10.8 m -8.985876,4.97006 0,-15.789999 C 14.13365,14.546407 12.236394,20.580278 7.5,21.489696"/>
 <path style="fill:none;stroke:#3f3f3f;stroke-width:3;stroke-linecap:round;stroke-linejoin:round" d="m 16.499983,25.49997 0,-15.7899999 C 18.880457,13.56668 20.763605,19.600552 25.5,20.50997 m -8.985876,4.97006 0,-15.7899994 C 14.13365,13.546741 12.236394,19.580612 7.5,20.49003"/>
 <path style="fill:none;stroke:#3f3f3f;stroke-width:3;stroke-linecap:round;stroke-linejoin:round" d="m 13.5,21.5 6,0"/>
 <path style="fill:none;stroke:#3f3f3f;stroke-width:3;stroke-linecap:round;stroke-linejoin:round" d="m 9.5,9.5 14,0"/>
 <path style="fill:none;stroke:#3f3f3f;stroke-width:3;stroke-linecap:round;stroke-linejoin:round" d="m 16.499983,5.5 0,6.999661"/>
 <path style="fill:#ffffff;opacity:0.2" d="M 3.4492188 1 C 2.6459188 1 2 1.6459188 2 2.4492188 L 2 3.4492188 C 2 2.6459188 2.6459188 2 3.4492188 2 L 29.550781 2 C 30.354081 2 31 2.6459188 31 3.4492188 L 31 2.4492188 C 31 1.6459188 30.354081 1 29.550781 1 L 3.4492188 1 z"/>
</svg>
